X:167
M:C
L:1/8
Q:1/4=130
K:E_
(B/4c/4d/)|e>f d>e (c/=B/c/d/) e z/g/|agfe (d/c/d/e/) f(B/4c/4d/)|
e>f d>e (c/B/c/)(d/4e/4) (f/e/)(d/c/)|
(c/B/)A/G/ (B/A/)G/F/ [G,E] [B,G] [G,E](B/4c/4d/)|
e>f d>e (c/=B/c/d/) e>f|a>gf>e d>efg|(e<g) (A<c) G>AB>c|e>c B<G [G,3E3]|
|

